SwissTransferResources/Images.xcassets/Illustrations/document-stars-rocket.imageset/document-stars-rocket-dark.svg

<svg width="153" height="112" viewBox="0 0 153 112" fill="none" xmlns="http://www.w3.org/2000/svg">
<path d="M127.94 17.3161L125.905 16.6148C125.281 16.3797 124.6 16.3288 123.941 16.4679C123.281 16.607 122.67 16.9304 122.181 17.4002L118.566 21.0059C118.45 21.1269 118.371 21.2773 118.336 21.4397C118.301 21.6021 118.313 21.7699 118.369 21.9239C118.425 22.089 118.522 22.2367 118.65 22.3536C118.779 22.4705 118.935 22.5529 119.105 22.5936L124.014 23.7451" fill="#3C4F52"/>
<path d="M127.94 17.3161L125.905 16.6148C125.281 16.3797 124.6 16.3288 123.941 16.4679C123.281 16.607 122.67 16.9304 122.181 17.4002L118.566 21.0059C118.45 21.1269 118.371 21.2773 118.336 21.4397C118.301 21.6021 118.313 21.7699 118.369 21.9239C118.425 22.089 118.522 22.2367 118.65 22.3536C118.779 22.4705 118.935 22.5529 119.105 22.5936L124.014 23.7451L127.94 17.3161Z" stroke="#DCE4E5" stroke-width="0.5" stroke-linecap="round" stroke-linejoin="round"/>
<path d="M135.968 25.2899L136.67 27.3252C136.905 27.9483 136.956 28.6296 136.817 29.2892C136.677 29.9488 136.354 30.5593 135.884 31.0492L132.279 34.6641C132.157 34.7795 132.007 34.8591 131.845 34.8938C131.682 34.9285 131.515 34.9169 131.361 34.8603C131.195 34.8043 131.048 34.7077 130.931 34.5794C130.814 34.451 130.731 34.2948 130.691 34.1249L129.539 29.2156" fill="#3C4F52"/>
<path d="M135.968 25.2899L136.67 27.3252C136.905 27.9483 136.956 28.6296 136.817 29.2892C136.677 29.9488 136.354 30.5593 135.884 31.0492L132.279 34.6641C132.157 34.7795 132.007 34.8591 131.845 34.8938C131.682 34.9285 131.515 34.9169 131.361 34.8603C131.195 34.8043 131.048 34.7077 130.931 34.5794C130.814 34.451 130.731 34.2948 130.691 34.1249L129.539 29.2156L135.968 25.2899Z" stroke="#DCE4E5" stroke-width="0.5" stroke-linecap="round" stroke-linejoin="round"/>
<path d="M149.401 13.1011C149.401 13.0987 149.401 13.0963 149.401 13.0939C149.401 13.0913 149.401 13.0887 149.4 13.0861L149.058 4.26904C149.053 4.13858 148.949 4.03397 148.818 4.02892L140.002 3.68745C139.997 3.68726 139.992 3.68722 139.987 3.68732C138.643 3.7151 137.326 4.07303 136.154 4.72962C134.981 5.38622 133.988 6.32131 133.263 7.45252L133.263 7.45247L133.259 7.45826L123.685 23.3151C123.625 23.4134 123.64 23.5396 123.722 23.621L129.451 29.3583C129.533 29.4397 129.659 29.4551 129.757 29.3957L145.614 19.8288L145.614 19.8288L145.619 19.8255C146.754 19.1025 147.693 18.1106 148.352 16.9377C149.012 15.7648 149.372 14.4471 149.401 13.1011Z" fill="#2B383B" stroke="#DCE4E5" stroke-width="0.5" stroke-linecap="round" stroke-linejoin="round"/>
<path d="M149.055 4.26927C149.05 4.1388 148.946 4.0342 148.815 4.02914L139.999 3.68767C139.884 3.68324 139.781 3.75725 139.749 3.86726C139.717 3.97726 139.764 4.09506 139.862 4.15309L139.989 3.93749L139.862 4.15309L139.863 4.15314L139.863 4.15338L139.865 4.15442L139.872 4.1587L139.901 4.17587C139.927 4.19108 139.965 4.21373 140.014 4.24324C140.112 4.30228 140.254 4.38879 140.431 4.49831C140.784 4.71741 141.274 5.02834 141.821 5.39544C142.917 6.13222 144.225 7.08579 145.112 7.97292C145.999 8.86005 146.953 10.1681 147.69 11.2644C148.057 11.8106 148.368 12.3007 148.587 12.6542C148.696 12.8309 148.783 12.9733 148.842 13.0714C148.871 13.1205 148.894 13.1585 148.909 13.1841L148.926 13.2131L148.931 13.2203L148.932 13.2221L148.932 13.2225L148.932 13.2226L149.148 13.096L148.932 13.2226C148.99 13.3214 149.108 13.3682 149.218 13.336C149.328 13.3037 149.402 13.2009 149.397 13.0863L149.055 4.26927Z" fill="#3C4F52" stroke="#DCE4E5" stroke-width="0.5" stroke-linecap="round" stroke-linejoin="round"/>
<path d="M138.84 17.4271C140.598 17.4271 142.024 16.0014 142.024 14.2428C142.024 12.4841 140.598 11.0585 138.84 11.0585C137.081 11.0585 135.656 12.4841 135.656 14.2428C135.656 16.0014 137.081 17.4271 138.84 17.4271Z" fill="#DCE4E5" stroke="#DCE4E5" stroke-width="0.5" stroke-linecap="round" stroke-linejoin="round"/>
<path d="M124.744 33.717C124.394 34.0662 123.8 34.3394 123.066 34.5446C122.339 34.7477 121.509 34.8755 120.72 34.955C119.932 35.0343 119.192 35.0648 118.648 35.0754C118.378 35.0806 118.157 35.081 118.003 35.08C118.002 34.9262 118.002 34.705 118.007 34.4346C118.018 33.8911 118.048 33.151 118.128 32.363C118.207 31.5738 118.335 30.7434 118.538 30.0168C118.743 29.2827 119.017 28.6883 119.366 28.3391C120.851 26.8541 123.259 26.8541 124.744 28.3391C126.229 29.8242 126.229 32.2319 124.744 33.717Z" fill="white" stroke="#DCE4E5" stroke-width="0.5"/>
<path d="M123.518 31.9975C123.372 32.1432 123.11 32.2686 122.759 32.3666C122.416 32.4625 122.021 32.5236 121.641 32.5618C121.263 32.5999 120.907 32.6146 120.646 32.6197C120.578 32.621 120.517 32.6217 120.463 32.6219C120.463 32.5684 120.464 32.5071 120.465 32.4395C120.471 32.1778 120.485 31.822 120.523 31.4437C120.562 31.0642 120.623 30.6689 120.719 30.3258C120.817 29.9753 120.942 29.7129 121.088 29.5672C121.759 28.8961 122.847 28.8961 123.518 29.5672C124.189 30.2383 124.189 31.3264 123.518 31.9975Z" fill="#1A1A1A" stroke="#DCE4E5" stroke-width="0.5"/>
<rect x="32.25" y="59.3975" width="39.68" height="52.3521" rx="0.986306" fill="#3C4F52" stroke="#DCE4E5" stroke-width="0.5"/>
<rect x="38.7402" y="53.835" width="39.68" height="57.9155" rx="0.986306" fill="#3C4F52" stroke="#DCE4E5" stroke-width="0.5"/>
<mask id="path-12-inside-1_7088_3989" fill="white">
<path fill-rule="evenodd" clip-rule="evenodd" d="M98.1454 44H64.7723L44.9121 63.6617V110.826C44.9121 111.472 45.4365 111.997 46.0833 111.997H98.1454C98.7922 111.997 99.3166 111.472 99.3166 110.826V45.1712C99.3166 44.5244 98.7922 44 98.1454 44ZM94.8042 50.4377C95.9153 50.4377 96.816 49.537 96.816 48.426C96.816 47.3149 95.9153 46.4142 94.8042 46.4142C93.6932 46.4142 92.7925 47.3149 92.7925 48.426C92.7925 49.537 93.6932 50.4377 94.8042 50.4377Z"/>
</mask>
<path fill-rule="evenodd" clip-rule="evenodd" d="M98.1454 44H64.7723L44.9121 63.6617V110.826C44.9121 111.472 45.4365 111.997 46.0833 111.997H98.1454C98.7922 111.997 99.3166 111.472 99.3166 110.826V45.1712C99.3166 44.5244 98.7922 44 98.1454 44ZM94.8042 50.4377C95.9153 50.4377 96.816 49.537 96.816 48.426C96.816 47.3149 95.9153 46.4142 94.8042 46.4142C93.6932 46.4142 92.7925 47.3149 92.7925 48.426C92.7925 49.537 93.6932 50.4377 94.8042 50.4377Z" fill="#2B383B"/>
<path d="M64.7723 44V43.5H64.5666L64.4205 43.6447L64.7723 44ZM44.9121 63.6617L44.5603 63.3064L44.4121 63.4532V63.6617H44.9121ZM64.7723 44.5H98.1454V43.5H64.7723V44.5ZM45.2639 64.0171L65.124 44.3553L64.4205 43.6447L44.5603 63.3064L45.2639 64.0171ZM45.4121 110.826V63.6617H44.4121V110.826H45.4121ZM46.0833 111.497C45.7126 111.497 45.4121 111.196 45.4121 110.826H44.4121C44.4121 111.749 45.1603 112.497 46.0833 112.497V111.497ZM98.1454 111.497H46.0833V112.497H98.1454V111.497ZM98.8166 110.826C98.8166 111.196 98.5161 111.497 98.1454 111.497V112.497C99.0684 112.497 99.8166 111.749 99.8166 110.826H98.8166ZM98.8166 45.1712V110.826H99.8166V45.1712H98.8166ZM98.1454 44.5C98.5161 44.5 98.8166 44.8005 98.8166 45.1712H99.8166C99.8166 44.2482 99.0684 43.5 98.1454 43.5V44.5ZM96.316 48.426C96.316 49.2609 95.6391 49.9377 94.8042 49.9377V50.9377C96.1914 50.9377 97.316 49.8132 97.316 48.426H96.316ZM94.8042 46.9142C95.6391 46.9142 96.316 47.591 96.316 48.426H97.316C97.316 47.0388 96.1914 45.9142 94.8042 45.9142V46.9142ZM93.2925 48.426C93.2925 47.591 93.9693 46.9142 94.8042 46.9142V45.9142C93.417 45.9142 92.2925 47.0388 92.2925 48.426H93.2925ZM94.8042 49.9377C93.9693 49.9377 93.2925 49.2609 93.2925 48.426H92.2925C92.2925 49.8132 93.417 50.9377 94.8042 50.9377V49.9377Z" fill="#DCE4E5" mask="url(#path-12-inside-1_7088_3989)"/>
<path opacity="0.5" fill-rule="evenodd" clip-rule="evenodd" d="M67.2012 67.3402C67.2012 66.5173 68.0054 65.9291 68.7998 66.1711L82.3888 70.311C82.9071 70.4689 83.2609 70.9431 83.2609 71.4801V84.8215C83.2609 85.6444 82.4566 86.2325 81.6622 85.9905L68.0732 81.8506C67.5549 81.6927 67.2012 81.2186 67.2012 80.6816V67.3402Z" fill="#5AC78A"/>
<path opacity="0.8" fill-rule="evenodd" clip-rule="evenodd" d="M64.1113 69.6642C64.1113 68.8412 64.9156 68.2531 65.71 68.4951L79.299 72.635C79.8173 72.7929 80.171 73.2671 80.171 73.804V87.1454C80.171 87.9684 79.3668 88.5565 78.5724 88.3145L64.9834 84.1746C64.465 84.0167 64.1113 83.5425 64.1113 83.0056V69.6642Z" fill="#4EC483"/>
<path fill-rule="evenodd" clip-rule="evenodd" d="M61.0234 71.9881C61.0234 71.1652 61.8277 70.5771 62.6221 70.8191L76.2111 74.959C76.7294 75.1169 77.0831 75.591 77.0831 76.128V89.4694C77.0831 90.2924 76.2789 90.8805 75.4845 90.6385L61.8955 86.4986C61.3772 86.3407 61.0234 85.8665 61.0234 85.3295V71.9881Z" fill="#3BB471"/>
<path fill-rule="evenodd" clip-rule="evenodd" d="M70.807 76.5702C70.9227 76.6683 71.0179 76.7923 71.0811 76.9273L73.5151 85.5682C73.6971 85.9569 73.5744 86.3389 73.241 86.4212C73.1399 86.4462 73.0266 86.4412 72.9115 86.4066L70.7019 85.7437L70.807 82.7145L68.8085 85.2152L64.7053 83.9448C64.3255 83.8309 64.0176 83.4299 64.0176 83.0493C64.0176 82.9433 64.042 82.846 64.0888 82.7651L65.4728 79.3658C65.6411 79.0751 66.0536 79.059 66.3941 79.3299C66.5293 79.4375 66.6388 79.5801 66.7056 79.7357L67.4602 81.0074L69.8738 76.5651C70.0558 76.2855 70.4736 76.2879 70.807 76.5702Z" fill="white"/>
<path d="M45.7129 63.4117L64.5211 44.6036V62.4906C64.5211 62.9993 64.1087 63.4117 63.5999 63.4117H45.7129Z" fill="#67DD95" stroke="#DCE4E5" stroke-width="0.5"/>
<path d="M99.2245 49.2342C101.107 50.6483 103.386 52.9346 105.463 55.611C109.748 61.1327 111.942 66.603 110.362 67.8292C108.782 69.0554 104.027 65.5732 99.7416 60.0515C99.5963 59.8642 99.4534 59.6771 99.313 59.4902C96.728 56.0491 94.9802 52.6835 94.4782 50.4125C94.2032 49.1682 94.3022 48.2526 94.8425 47.8333C95.263 47.5069 96.0088 47.5356 96.8104 47.826" stroke="#67DD95" stroke-width="0.5"/>
<path d="M147.548 41.0706L146.842 37.0867L144.8 37.4485L145.506 41.4324L141.468 40.663L141.131 42.6565L145.151 43.3254L143.389 47.0215L145.365 47.8454L147.042 44.0607L150.119 47.0032L151.451 45.5586L148.566 42.7204L152.178 40.6992L151.076 38.9608L147.548 41.0706Z" fill="#FF8500"/>
<path d="M7.71321 43.0864L5.88018 39.4795L4.03126 40.4191L5.86429 44.026L1.77688 44.4633L2.03328 46.4687L6.07448 45.9405L5.46232 49.9892L7.59249 50.2034L8.09781 46.0946L11.8965 48.0161L12.7517 46.2466L9.16612 44.3694L12.0356 41.3855L10.4759 40.0425L7.71321 43.0864Z" fill="#FF8500"/>
<path d="M48.481 25.3569L49.057 22.6347L47.6726 22.3418L47.0966 25.064L44.7403 23.5377L44.0154 24.7227L46.3862 26.1803L44.3232 28.086L45.3615 29.1183L47.3936 27.1344L48.584 29.8002L49.7974 29.2204L48.701 26.6701L51.5045 26.3074L51.2536 24.9159L48.481 25.3569Z" fill="#FFC10A"/>
<path d="M93.0686 4.04598V0H90.9946V4.04598L87.1526 2.58399L86.4727 4.48797L90.3146 5.84797L87.9346 9.17995L89.7366 10.3359L92.0486 6.90196L94.5646 10.3359L96.1286 9.14595L93.7826 5.84797L97.6926 4.48797L96.9106 2.58399L93.0686 4.04598Z" fill="#FFC10A"/>
<path d="M147.476 72.5167V69.9854H146.179V72.5167L143.775 71.602L143.35 72.7932L145.753 73.6441L144.264 75.7287L145.392 76.4519L146.838 74.3035L148.412 76.4519L149.391 75.7074L147.923 73.6441L150.369 72.7932L149.88 71.602L147.476 72.5167Z" fill="#FFC10A"/>
</svg>

<svg xmlns="http://www.w3.org/2000/svg" width="153" height="112" fill="none"><path fill="#3C4F52" d="m127.94 17.316-2.035-.701a3.511 3.511 0 0 0-1.964-.147c-.66.139-1.271.462-1.76.932l-3.615 3.606a.9.9 0 0 0-.23.434.876.876 0 0 0 .033.484 1.03 1.03 0 0 0 .736.67l4.909 1.151"/><path stroke="#DCE4E5" stroke-linecap="round" stroke-linejoin="round" stroke-width=".5" d="m127.94 17.316-2.035-.701a3.511 3.511 0 0 0-1.964-.147c-.66.139-1.271.462-1.76.932l-3.615 3.606a.9.9 0 0 0-.23.434.876.876 0 0 0 .033.484 1.03 1.03 0 0 0 .736.67l4.909 1.151 3.926-6.429Z"/><path fill="#3C4F52" d="m135.968 25.29.702 2.035c.235.623.286 1.305.147 1.964-.14.66-.463 1.27-.933 1.76l-3.605 3.615a.91.91 0 0 1-.434.23.873.873 0 0 1-.484-.034 1.023 1.023 0 0 1-.67-.735l-1.152-4.91"/><path stroke="#DCE4E5" stroke-linecap="round" stroke-linejoin="round" stroke-width=".5" d="m135.968 25.29.702 2.035c.235.623.286 1.305.147 1.964-.14.66-.463 1.27-.933 1.76l-3.605 3.615a.91.91 0 0 1-.434.23.873.873 0 0 1-.484-.034 1.023 1.023 0 0 1-.67-.735l-1.152-4.91 6.429-3.925Z"/><path fill="#2B383B" stroke="#DCE4E5" stroke-linecap="round" stroke-linejoin="round" stroke-width=".5" d="M149.401 13.101v-.007l-.001-.008-.342-8.817a.25.25 0 0 0-.24-.24l-8.816-.342h-.015a8.19 8.19 0 0 0-6.724 3.766h0l-.004.005-9.574 15.857a.248.248 0 0 0 .037.306l5.729 5.737a.25.25 0 0 0 .306.038l15.857-9.567h0l.005-.003a8.182 8.182 0 0 0 3.782-6.724Z"/><path fill="#3C4F52" stroke="#DCE4E5" stroke-linecap="round" stroke-linejoin="round" stroke-width=".5" d="M149.055 4.27a.25.25 0 0 0-.24-.24l-8.816-.342a.25.25 0 0 0-.137.465l.127-.216-.127.216h.001l.002.001.007.005.029.017.113.067a42.384 42.384 0 0 1 1.807 1.152c1.096.737 2.404 1.69 3.291 2.578.887.887 1.841 2.195 2.578 3.291a45.392 45.392 0 0 1 1.152 1.807l.067.113.017.03.005.006.001.002h0l.216-.126-.216.127a.25.25 0 0 0 .465-.137l-.342-8.817Z"/><path fill="#DCE4E5" stroke="#DCE4E5" stroke-linecap="round" stroke-linejoin="round" stroke-width=".5" d="M138.84 17.427a3.184 3.184 0 1 0-.001-6.369 3.184 3.184 0 0 0 .001 6.37Z"/><path fill="#fff" stroke="#DCE4E5" stroke-width=".5" d="M124.744 33.717c-.35.35-.944.622-1.678.828-.727.203-1.557.33-2.346.41a26.18 26.18 0 0 1-2.717.125 25.83 25.83 0 0 1 .125-2.717c.079-.79.207-1.62.41-2.346.205-.734.479-1.329.828-1.678a3.803 3.803 0 0 1 5.378 5.378Z"/><path fill="#1A1A1A" stroke="#DCE4E5" stroke-width=".5" d="M123.518 31.997c-.146.146-.408.272-.759.37a6.803 6.803 0 0 1-1.118.195 12.568 12.568 0 0 1-1.178.06l.002-.182c.006-.262.02-.618.058-.996.039-.38.1-.775.196-1.118.098-.35.223-.613.369-.759a1.718 1.718 0 1 1 2.43 2.43Z"/><rect width="39.68" height="52.352" x="32.25" y="59.398" fill="#3C4F52" stroke="#DCE4E5" stroke-width=".5" rx=".986"/><rect width="39.68" height="57.916" x="38.74" y="53.835" fill="#3C4F52" stroke="#DCE4E5" stroke-width=".5" rx=".986"/><mask id="a" fill="#fff"><path fill-rule="evenodd" d="M98.145 44H64.772l-19.86 19.662v47.164c0 .646.525 1.171 1.171 1.171h52.062c.647 0 1.172-.525 1.172-1.171V45.171c0-.647-.525-1.171-1.172-1.171Zm-3.34 6.438a2.012 2.012 0 1 0 0-4.024 2.012 2.012 0 0 0 0 4.024Z" clip-rule="evenodd"/></mask><path fill="#2B383B" fill-rule="evenodd" d="M98.145 44H64.772l-19.86 19.662v47.164c0 .646.525 1.171 1.171 1.171h52.062c.647 0 1.172-.525 1.172-1.171V45.171c0-.647-.525-1.171-1.172-1.171Zm-3.34 6.438a2.012 2.012 0 1 0 0-4.024 2.012 2.012 0 0 0 0 4.024Z" clip-rule="evenodd"/><path fill="#DCE4E5" d="M64.772 44v-.5h-.205l-.146.145.351.355Zm-19.86 19.662-.352-.356-.148.147v.209h.5ZM64.772 44.5h33.373v-1H64.772v1ZM45.264 64.017l19.86-19.662-.703-.71-19.86 19.661.703.711Zm.148 46.809V63.662h-1v47.164h1Zm.671.671a.671.671 0 0 1-.67-.671h-1c0 .923.747 1.671 1.67 1.671v-1Zm52.062 0H46.083v1h52.062v-1Zm.672-.671c0 .37-.3.671-.672.671v1c.923 0 1.672-.748 1.672-1.671h-1Zm0-65.655v65.655h1V45.171h-1Zm-.672-.671c.371 0 .672.3.672.671h1c0-.923-.749-1.671-1.672-1.671v1Zm-1.829 3.926c0 .835-.677 1.512-1.512 1.512v1a2.512 2.512 0 0 0 2.512-2.512h-1Zm-1.512-1.512c.835 0 1.512.677 1.512 1.512h1a2.512 2.512 0 0 0-2.512-2.512v1Zm-1.511 1.512c0-.835.676-1.512 1.511-1.512v-1a2.512 2.512 0 0 0-2.511 2.512h1Zm1.511 1.512a1.512 1.512 0 0 1-1.511-1.512h-1a2.512 2.512 0 0 0 2.511 2.512v-1Z" mask="url(#a)"/><path fill="#5AC78A" fill-rule="evenodd" d="M67.201 67.34c0-.823.804-1.41 1.599-1.169l13.589 4.14c.518.158.872.632.872 1.17v13.34c0 .823-.804 1.412-1.599 1.17l-13.589-4.14a1.225 1.225 0 0 1-.872-1.17v-13.34Z" clip-rule="evenodd" opacity=".5"/><path fill="#4EC483" fill-rule="evenodd" d="M64.111 69.664c0-.823.805-1.41 1.599-1.169l13.589 4.14c.518.158.872.632.872 1.169v13.341c0 .823-.804 1.412-1.599 1.17l-13.589-4.14a1.225 1.225 0 0 1-.872-1.17v-13.34Z" clip-rule="evenodd" opacity=".8"/><path fill="#3BB471" fill-rule="evenodd" d="M61.023 71.988c0-.823.805-1.41 1.6-1.169l13.588 4.14c.518.158.872.632.872 1.169v13.341c0 .823-.804 1.412-1.599 1.17l-13.588-4.14a1.225 1.225 0 0 1-.873-1.17V71.99Z" clip-rule="evenodd"/><path fill="#fff" fill-rule="evenodd" d="M70.807 76.57c.116.098.21.222.274.357l2.434 8.641c.182.389.06.77-.274.853a.626.626 0 0 1-.33-.014l-2.21-.663.106-3.03-1.999 2.501-4.103-1.27c-.38-.114-.687-.515-.687-.896 0-.106.024-.203.07-.284l1.385-3.4c.168-.29.58-.306.921-.035.135.108.245.25.312.406l.754 1.271 2.414-4.442c.182-.28.6-.277.933.005Z" clip-rule="evenodd"/><path fill="#67DD95" stroke="#DCE4E5" stroke-width=".5" d="M45.713 63.412 64.52 44.604V62.49a.921.921 0 0 1-.921.92H45.713Z"/><path stroke="#67DD95" stroke-width=".5" d="M99.225 49.234c1.882 1.414 4.161 3.7 6.238 6.377 4.285 5.522 6.479 10.992 4.899 12.218-1.58 1.226-6.335-2.256-10.62-7.777a45.527 45.527 0 0 1-.429-.562c-2.585-3.44-4.333-6.806-4.835-9.078-.275-1.244-.176-2.16.365-2.579.42-.326 1.166-.297 1.967-.007"/><path fill="#FF8500" d="m147.548 41.07-.706-3.983-2.042.361.706 3.984-4.038-.769-.337 1.994 4.02.668-1.762 3.697 1.976.823 1.677-3.784 3.077 2.942 1.332-1.444-2.885-2.839 3.612-2.02-1.102-1.74-3.528 2.11ZM7.713 43.086 5.88 39.48l-1.849.94 1.833 3.606-4.087.437.256 2.006 4.041-.529-.612 4.05 2.13.213.506-4.108 3.798 1.921.856-1.77-3.586-1.877 2.87-2.983-1.56-1.344-2.763 3.044Z"/><path fill="#FFC10A" d="m48.481 25.357.576-2.722-1.384-.293-.576 2.722-2.357-1.526-.725 1.185 2.371 1.457-2.063 1.906 1.038 1.032 2.033-1.984 1.19 2.666 1.213-.58-1.096-2.55 2.803-.363-.25-1.391-2.773.44ZM93.069 4.046V0h-2.074v4.046l-3.842-1.462-.68 1.904 3.842 1.36-2.38 3.332 1.802 1.156 2.312-3.434 2.516 3.434 1.564-1.19-2.346-3.298 3.91-1.36-.782-1.904-3.842 1.462ZM147.476 72.517v-2.532h-1.297v2.532l-2.404-.915-.425 1.191 2.403.851-1.489 2.085 1.128.723 1.446-2.148 1.574 2.148.979-.745-1.468-2.063 2.446-.85-.489-1.192-2.404.915Z"/></svg>
